X: 11752
Q: "With spirit."
M: 6/8
L: 1/8
K: D
d2c edc | a>gf e<fg | f2d d>cd | e<cA ABc |\
d2c edc | dfb a2b | afd Aag | fdd d2 !segno!:|\
|: A |\
d>cB A<FD | EFG ABc | def gag | fdd "^Fin."d2 H:|\
|: f |\
a>ba g2e | f<af def | g>bg efg | fga d2a |\


